X: 1
T: Reel Du Pendu
M: 4/4
L: 1/8
R: reel
K: Gmaj
|:&quot;G&quot;DEGA B2B2|BcBA B2B2|DEGA B2B2|&quot;D7&quot;ABAF &quot;G&quot;G2G2:|
|:&quot;D7&quot;A/2A/2AA2 A/2A/2AA2|A/2A/2AB2 c2B2|A/2A/2AB2 c2B2|A2F2 &quot;G&quot;G4:|
|:&quot;G&quot;DB,CD &quot;C&quot;ECDE|&quot;G&quot;DCB,G, &quot;D7&quot;A,2A,2|&quot;G&quot;DB,CD &quot;C&quot;ECDE|&quot;D7&quot;DCB,A, &quot;G&quot;G,2G,2:|
|:z4 B2B2|BcBA Bz3|z4 B2B2|ABAF G z3:|
